assets/ai/ai-overleaf-square.svg

<svg xmlns="http://www.w3.org/2000/svg" width="100%" height="100%" viewBox="-75.52 -43.52 599.04 599.04"><path d="M 48 32 C 21.5 32 0 53.5 0 80 L 0 432 C 0 458.5 21.5 480 48 480 L 400 480 C 426.5 480 448 458.5 448 432 L 448 80 C 448 53.5 426.5 32 400 32 L 48 32 z M 292.39062 96.001953 C 321.46078 96.09607 347.8514 100.47952 362.03125 106.00781 C 319.08481 140.59986 304.26134 217.90213 212.5332 182.49414 C 243.97599 158.89793 288.93583 137.22176 313.86133 124.03516 C 237.48907 142.96178 134.77158 192.28318 120.625 278.80469 C 116.59307 303.51288 121.73058 328.80799 141.69336 352.13477 C 155.17603 367.90411 175.23466 377.90234 197.61719 377.90234 C 238.23069 377.90234 271.15625 344.97676 271.15625 304.35156 C 271.15625 267.77691 244.44596 237.43441 209.47656 231.76367 C 185.72467 227.94758 158.93391 236.92122 141.75 257.5293 C 153.30728 231.46522 177.69618 205.30951 197.71875 192.58008 C 211.73588 191.39992 229.29168 196.92853 237.37305 200.00195 C 279.39019 216.00062 309.25391 256.70601 309.25391 304.36328 C 309.25391 366.01946 259.27932 416 197.61914 416 C 135.95382 416 85.96738 366.02056 85.96875 304.36328 C 85.96875 253.34455 116.23281 205.65261 161.93555 176.39258 C 162.10677 113.60362 232.86602 95.809237 292.39062 96.001953 z"/></svg>

<svg xmlns="http://www.w3.org/2000/svg" width="100%" height="100%" viewBox="-75.52 -43.52 599.04 599.04"><path d="M48 32C21.5 32 0 53.5 0 80v352c0 26.5 21.5 48 48 48h352c26.5 0 48-21.5 48-48V80c0-26.5-21.5-48-48-48H48zm244.39 64.002c29.07.094 55.461 4.478 69.641 10.006-42.946 34.592-57.77 111.894-149.498 76.486 31.443-23.596 76.403-45.272 101.328-58.459-76.372 18.927-179.09 68.248-193.236 154.77-4.032 24.708 1.106 50.003 21.068 73.33 13.483 15.77 33.542 25.767 55.924 25.767 40.614 0 73.54-32.925 73.54-73.55 0-36.575-26.711-66.918-61.68-72.588-23.752-3.816-50.543 5.157-67.727 25.765 11.557-26.064 35.946-52.22 55.969-64.949 14.017-1.18 31.573 4.349 39.654 7.422 42.017 15.999 71.88 56.704 71.88 104.361C309.254 366.02 259.28 416 197.62 416c-61.665 0-111.652-49.98-111.65-111.637 0-51.018 30.264-98.71 75.967-127.97.17-62.79 70.93-80.584 130.455-80.391z"/></svg>
